X:1
T:Mundesse
C:John Playford, The English Dancing Master, 1651
N:arr. Steve Hendricks
M:C
L:1/8
K:G
"G"G2 GG G2 A2|B3 A G2 d2|"Am"c3 B ABcd|"G"B3 A G2 G2|\
"D"A3 G A2 B2|"C"c3d c2 B2|"Am"A2 G2 "D"G2 F2|"G"G8:|
|:"Em"G3 A BABc| "D"d3 e d2 ef|"C"g2 f2 "A"edef | [1 "D"d8 :| [2 "D"d6 \
|:f2 | "Em"g2 f2 g2 e2|"Bm"d6 ef| "Em"g2 f2 g2 e2|"Bm"d6 e2| 
f2 g2 f2 g2| d6 c2| "G"B2 AA "D"GFGA| "G"G6 :|\
|:G2|"G"B3 c d2 B2|"C"e3 d c2 B2|"D"A2 G2 G2 F2| "G"G6 :|

